X:3118
T:Cloon Reel, The
M:4/4
L:1/8
R:reel
D:Dervish: Playing with Fire
Z:Devin McCabe
K:D
fedB ~A3G | FADF ABde | fedB ~A3G | AFDE FEEe |
!fedB ~A3G | FADF A2 (3ABc | d2fd adfd | B2AF FEEe :|
!d2fd adfg | a2ba afef | defd adfd | (3cBA eA fAeA |
!d2fd adfg | a2ba afea | bafd egfe | dBAF FEE2 ||


